X:1
T:James Gibb editions
T:Tu disais - Sermisy
T:#
%%score [ 1 2 3 4 ]
L:1/8
Q:1/4=121
M:4/4
K:F
V:1 treble nm="Soprano" snm="S"
V:2 treble nm="Alto" snm="A"
V:3 treble-8 nm="Tenor" snm="T"
V:4 bass nm="Bass" snm="B"
V:1
"^Tu disais""^Claudin de Sermisy\n(1490-1562)" z8 | z8 | z8 | z4 G2 d2 | d3 d c2 d2 | %5
w: |||Tu di-|sais que j'en mour-|
[M:4/4] B2 G2 cBGB | A2 (G2 B2) AF | B2 A2 G2 z2 | G2 d2 d3 d | c2 d2 B2 (G2 | c2) BG B2 A2 | %11
w: rais, Men- teu- se que tu|es, men\- * teu- se|que tu es,|Tu di- sais que|j'en mour- rais, men\-|* teu- se que tu|
 G4 z2 c2 | BG (B2 A2 G2- | G2) ^F2 G2 z2 | G2 d2 ddcd | B4 z4 | G2 d2 ddcd | B4 z4 | z8 | z8 | %20
w: es, men-|teu- se que * *|* tu es.|Ta mè- re n'en mou rut|pas;|Je fe- rai four- bir mon|bas|||
 z4 B3 B | c2 d2 (c2 B2) | A2 G2 B3 B | A2 B2 (A2 G2) | ^F2 G2 BABG | A2 G2 z4 | z2 B2- BB A2 | %27
w: Si je|ne suis ma\- *|ri- ée, si je|ne suis ma\- *|ri- ée. Voi- re, voi- re,|voi- re,|voi\- * re, voi-|
 G2 Bc d2 Bc | d2 BA B2 B2 | c2 A2 B4 | A2 GG G2 ^F2 | G2 Bc d2 BA | B2 BA B2 B2 | c2 A2 B4 | %34
w: re, Tu di- sais, tu l'as|dit, tu di- sais que|j'en mour- rais,|men- teu- se que tu|es, tu di- sais, tu l'as|dit, tu di- sais que|j'en mour- rais,|
 A2 GG G2 ^F2 | G2 z2 B2 BB | d4 z4 | z8 | B2 BB d2 d2 | (c2 d2 B2 G2) | z2 (G2 A2 G2- | %41
w: men- teu- se que tu|es. Je n'ai- me-|rai,||je n'ai- me- rai ja-|mais * * *|grand * *|
 G2) ^F2 G4 | z4 c3 c | cBAG F2 A2 | AA A2 z4 | d3 d cBAG | FFBG A2 G2 | z FBG A2 G2 | %48
w: * hom- me,|Le pe-|tit ser- re de près, ser-|re de près,|le pe- tit ser- re de|près. Et voi- re, voi- re,|et voi- re, voi- re,|
 z FBG A2 G2 | z2 Bc d2 Bc | d2 BA B2 B2 | c2 A2 B4 | A2 GG G2 ^F2 | G2 Bc d2 BA | B2 BA B2 B2 | %55
w: et voi- re, voi- re,|Tu di- sais, tu l'as|dit, tu di- sais que|j'en mour- rais,|men- teu- se que tu|es, tu di- sais, tu l'as|dit, tu di- sais que|
 c2 A2 B4 | G8 | z4 A4- | A4 G2 G2 | G8 | ^F4 G4- | G8 |] %62
w: j'en mour- rais,|es,|men\-|* teu- se|que|tu es.||
V:2
 z8 | z8 | z8 | C2 G2 G3 G | F2 G2 E2 (D2 |[M:4/4] G4 FD G2 | F2 G2 G2 FD | G2 F2 G2 z2 | %8
w: |||Tu di- sais que|j'en mour- rais, men\-|* teu- se que|tu es, men- teu- se|que tu es,|
 G2 B2 B3 B | A2 B2 G4 | C2 GG G2 ^F2 | G4 z2 C2 | G2 D2 F2 E2 | D8 | G2 G2 FDEF | G4 z4 | %16
w: Tu di- sais que|j'en mour- rais,|men- teu- se que tu|es, men-|teu- se que tu|es.|Ta mè- re n'en mou- rut|pas;|
 G2 G2 FDEF | G4 z4 | G3 G B2 B2 | A2 G2) ^F2 G2 | z4 G3 G | A2 B2 (A2 G2) | ^F2 G2 G3 G | %23
w: Je fe- rai four- bir mon|bas|Si je ne suis|ma\- * ri- ée,|si je|ne suis ma\- *|ri- ée, si je|
 A2 F2 (F2 D2) | D2 D2 B,CDE | ^F2 G2 z4 | z2 B,C DE ^F2 | G4 z2 DE | F2 G^F G2 G2 | F2 F2 D4 | %30
w: ne suis ma\- *|ri- ée. Voi- re, voi- re,|voi- re,|voi- re, voi- re, voi-|re, Tu l'as|dit, tu di- sais que|j'en mour- rais,|
 F2 DC D2 D2 | D2 GA G2 G^F | G2 G^F G2 G2 | F2 F2 D4 | F2 DC D2 D2 | D2 z2 G2 GG | B4 z4 | z8 | %38
w: men- teu- se que tu|es, tu di- sais tu l'as|dit, tu di- sais que|j'en mour- rais,|men- teu- se que tu|es. Je n'ai- me-|rai,||
 G2 GG B2 B2 | (A2 ^F2 G2 B2- | BA) (G2 F2 D2) | E2 D2- D2 G2- | GG (GF) (ED) (CD) | E2 F2 z4 | %44
w: je n'ai- me- rai ja-|mais * * *|* * grand * *|hom- me, * Le|* pe- tit * ser\- * re *|de près,|
 F3 F FEDC | D2 BB AGFE | DDGE F2 G2 | z DGE F2 G2 | z DGE F2 G2 | G,A, B,2 z2 DE | F2 GF G2 G2 | %51
w: le pe- tit ser- re de|près, le pe- tit ser- re de|près. Et voi- re, voi- re,|et voi- re, voi- re,|et voi- re, voi- re,|Tu di- sais, tu l'as|dit, tu di- sais que|
 F2 F2 D4 | F2 DC D2 D2 | D2 GA G2 G^F | G2 G^F G2 G2 | F2 F2 D4 | D8 | z4 F4- | F4 D2 C2 | %59
w: j'en mour- rais,|men- teu- se que tu|es, tu di- sais, tu l'as|dit, tu di- sais que|j'en mour- rais,|es,|men\-|* teu- se|
 D4 D4- | D4 D4- | D8 |] %62
w: que tu|* es.||
V:3
 z4 G2 d2 | d3 d c2 d2 | B2 G2 cBGB | (A2 G2) z4 | z8 |[M:4/4][K:treble-8] z4 z2 G2 | d2 d2 z4 | %7
w: Tu di-|sais que j'en mour-|rais, Men- teu- se que tu|es, *||Tu|di- sais,|
 G2 d2 d3 d | c2 d2 B2 (G2 | c2 BG B3 A | (A2 G2) z4 | c2 BG B2 A2 | G2 z2 c2 BA | B2 A2 G4 | z8 | %15
w: tu di- sais que|j'en mour- rais, men\-|* teu- se que tu|es, *|men- teu- se que tu|es, men- teu- se|que tu es.||
 G2 d2 ddcd | B4 z4 | G2 d2 ddcd | B4 B3 B | c2 d2 c2 B2) | A2 G2 z4 | z8 | z4 B3 B | %23
w: Ta mè- re n'en mou- rut|pas;|Je fe- rai four- bir mon|bas Si je|ne suis ma\- *|ri- ée,||si je|
 c2 d2 (c2 B2) | A2 G2 z4 | z4 BABG | A2 G2 z4 | Bc d2 Bc d2 | z2 Bc d2 d2 | c2 d2 (B2 G2) | %30
w: ne suis ma\- *|ri- ée.|Voi- re, voi- re,|voi- re,|Tu di- sais, tu l'as dit,|tu di- sais que|j'en mour- rais, *|
 c2 BG B2 A2 | G4 z2 Bc | d2 Bc d2 d2 | c2 d2 (B2 G2) | c2 BG B2 A2 | G4 z4 | B2 BB d2 d2 | %37
w: men- teu- se que tu|es, tu l'as|dit, tu di- sais que|j'en mour- rais, *|men- teu- se que tu|es.|Je n'ai- me- rai ja-|
 c2 B2 A2 G2 | z8 | z4 G2 GG | d2 d2 c2 B2 | A4 G4 | z2 c2- cccB | AG F2- F2 z2 | c3 c cBAG | %45
w: mais grand hom- me,||J'ai- me- rais|mieux un pe- tit|hom- me:|Le * pe- tit ser-|re de près, *|le pe- tit ser- re de|
 F4 z4 | z4 F2 BG | A2 G2 z FBG | A2 G2 z4 | Bc d2 Bc d2 | z2 Bc d2 d2 | c2 d2 (B2 G2) | %52
w: près.|Et voi- re,|voi- re, et voi- re,|voi- re,|Tu di- sais, tu l'as dit,|tu di- sais que|j'en mour- rais, *|
 c2 BG B2 A2 | G4 z2 Bc | d2 Bc d2 d2 | c2 d2 (B2 G2) | G8 | z4 c4- | c4 B2 G2 | B4 A4- | A4 G4- | %61
w: men- teu- se que tu|es, tu l'as|dit, tu di- sais que|j'en mour- rais, *|es,|men\-|* teu- se|que tu|* es.|
 G8 |] %62
w: |
V:4
 C,2 G,2 G,3 G, | F,2 G,2 E,2 (D,2 | G,4) F,D, G,2 | F,2 G,2 z4 | z8 |[M:4/4] z8 | z2 G,2 G,2 D2- | %7
w: Tu di- sais que|j'en mour- rais, Men\-|* teu- se que|tu es,|||tu di- sais|
 D3 C (B,A,G,)F, | (E,2 D,2) G,4 | A,2 G,4 G,2 | F,2 G,2 z4 | C,2 G,G, G,2 F,2 | G,2 G,2 F,2 G,2 | %13
w: * que j'en * * mour-|rais, * men-|teu- se que|tu es,|men- teu- se que tu|es, men- teu- se|
 D,2 D,2 G,4 | z8 | G,2 G,2 F,D,E,F, | G,4 z4 | G,2 G,2 F,D,E,F, | G,4 G,3 G, | A,2 B,2 (A,2 G,2) | %20
w: que tu es.||Ta mè- re n'en mou- rut|pas;|Je fe- rai four- bir mon|bas Si je|ne suis ma\- *|
 ^F,2 G,2 z4 | z8 | z4 G,3 G, | F,2 B,,2 (F,2 G,2) | D,2 G,2 z4 | z4 B,,C,D,E, | F,2 G,2 B,C D2 | %27
w: ri- ée,||si j|ne suis ma\- *|ri- ée.|Voi- re, voi- re,|voi- re, Tu di- sais,|
 z2 G,A, B,4 | z2 G,A, G,2 B,2 | F,2 F,2 G,4 | F,2 G,C, G,2 D,2 | G,4 z2 G,A, | G,2 G,A, G,2 B,2 | %33
w: tu l'as dit,|tu di- sais que|j'en mour- rais,|men- teu- se que tu|es, tu l'as|dit, tu di- sais que|
 F,2 F,2 G,4 | F,2 G,C, G,2 D,2 | G,4 z4 | G,2 G,G, B,2 B,2 | A,2 G,2 ^F,2 G,2 | z8 | z4 G,2 G,G, | %40
w: j'en mour- rais,|men- teu- se que tu|es.|Je n'ai- me- rai ja-|mais grand hom- me,||J'ai- me- rais|
 B,2 B,2 F,2 G,2 | C,2 D,2 G,3 G, | G,F,E,D, C,2 C2- | CCCB, A,G, F,2 | A,3 A, A,G,F,E, | D,4 z4 | %46
w: mieux un pe- tit|hom- me: Le pe-|tit ser- re de près, le|* pe tit ser- re de près,|le pe- tit ser- re de|près.|
 z4 D,2 G,E, | F,2 G,2 z D,G,E, | F,2 G,2 z2 B,C | D2 G,A, B,4 | z2 G,A, G,2 B,2 | F,2 F,2 G,4 | %52
w: Et voi- re,|voi- re, et voi- re,|voi- re, Tu di-|sais, tu l'as dit,|tu di- sais que|j'en mour- rais,|
 F,2 G,C, G,2 D,2 | G,4 z2 G,A, | G,2 G,A, G,2 B,2 | F,2 F,2 G,4 | G,8 | z4 F,4- | F,4 G,2 C,2 | %59
w: men- teu- se que tu|es, tu l'as|dit, tu di- sais que|j'en mour- rais,|es,|men\-|* teu- se|
 G,4 D,4- | D,4 G,4- | G,8 |] %62
w: que tu|* es.||

